X:433
L:1/4
Q:1/4=120
M:3/4
K:Ador
"^Dorian" ((A/B/)) | c B A |"^(a)" B E E |"^(b)" c B G | A2 (A/B/) | c A A | G E E/E/ | F D D | 
 E2 B | c B A | B E E | c B G | A2 (A/B/) | c A A | G E (E/"^?"F/) | G G A | E2 (D/C/) | 
 (C3/2 D/) (E/"^?"F/) | G !fermata!E2 | (c B) A | G E D | E A"^#?" G | A2 || ((A/B/)) | c B A | 
"^(a) var." G E E |"^(b) var." c B (A/"^?#"G/) | A2 (A/B/) | c A A | G E E/E/ | F D D | E2 B | 
 c B A | B E E | c B G | A2 (A/B/) | c A A | G E (E/"^?"F/) | G G A | E2 (D/C/) | 
 (C3/2 D/) (E/F/) | G !fermata!E2 | (c B) A | G E D | E A"^#?" G | A2 |]

